!!!COM: Palestrina, Giovanni Perluigi da
!!!OPR: Octavi toni
!!!OTL: Gloria
**kern	**kern	**kern	**kern	**kern	**kern
*Ibass	*Itenor	*Itenor	*Icalto	*Icant	*Icant
!Bassus	!Tenor 2	!Tenor 1	!Altus	!Cantus 2	!Cantus 1
*clefF4	*clefGv2	*clefGv2	*clefG2	*clefG2	*clefG2
*k[]	*k[]	*k[]	*k[]	*k[]	*k[]
*G:mix	*G:mix	*G:mix	*G:mix	*G:mix	*G:mix
*M4/2	*M4/2	*M4/2	*M4/2	*M4/2	*M4/2
=1	=1	=1	=1	=1	=1
1.GG	1.d	1.B	0r	1.g	0r
2GG	2d	2B	.	2g	.
=2	=2	=2	=2	=2	=2
1C	1G	1c	0r	1e	0r
1E	1G	1B	.	1e	.
=3	=3	=3	=3	=3	=3
1.D	1.A	2d	0r	1f	0r
.	.	2d	.	.	.
.	.	2.A	.	1f	.
2D	2F	.	.	.	.
.	.	4B	.	.	.
=4	=4	=4	=4	=4	=4
2.AA	1A	1.c	0r	1.e	0r
4BB	.	.	.	.	.
2C	1G	.	.	.	.
2C	.	2c	.	2e	.
=5	=5	=5	=5	=5	=5
2GG	2G	1B	0r	2d	0r
1G	1B	.	.	1d	.
.	.	2G	.	.	.
2F	2d	2A	.	2d	.
=6	=6	=6	=6	=6	=6
2E	2e	2B	0r	2g	0r
2C	2e	1c	.	2g	.
1G	1d	.	.	1g	.
.	.	2B	.	.	.
=7	=7	=7	=7	=7	=7
1C	1e	1c	1r	0g	1r
1G	1d	2r	1g	.	1b
.	.	2G	.	.	.
=8	=8	=8	=8	=8	=8
1D	1d	1A	1f#	0r	1a
1G	1d	1G	1g	.	1b
=9	=9	=9	=9	=9	=9
0C	2.c	1G	1e	0g	1cc
.	4d	.	.	.	.
.	1e	1c	2r	.	2r
.	.	.	2e	.	2cc
=10	=10	=10	=10	=10	=10
0r	0r	1A	1e	1a	1cc
.	.	1d	1f#	1a	1dd
=11	=11	=11	=11	=11	=11
2r	2r	1G	2g	2g	2b
1C	1c	.	1e	1g	1cc
.	.	1r	.	.	.
2C	2c	.	2e	2g	2cc
=12	=12	=12	=12	=12	=12
1F	1A	0r	2c	1f	1cc
.	.	.	2A	.	.
2D	2A	.	1F	2f	2dd
2D	2B	.	.	2f	2dd
=13	=13	=13	=13	=13	=13
2C	2c	2r	2G	2e	2g
1C	1c	1G	1g	1e	1cc
2C	2c	2G	2g	2e	2cc
=14	=14	=14	=14	=14	=14
1GG	2d	2G	1g	1d	1b
.	2D	2G	.	.	.
1D	4F	1A	1f	1d	1a
.	4G	.	.	.	.
.	4A	.	.	.	.
.	4F	.	.	.	.
=15	=15	=15	=15	=15	=15
0C	2G	2r	2e	0g	0cc
.	2C	2E	2e	.	.
.	2C	2c	2e	.	.
.	2C	2c	2e	.	.
=16	=16	=16	=16	=16	=16
2r	4G	2B	0d	1g	1dd
.	4A	.	.	.	.
2GG	4B	4G	.	.	.
.	4c	4A	.	.	.
2GG	4d	4B	.	2g	2b
.	4c	4c	.	.	.
2GG	2B	[2d	.	2g	2g
=17	=17	=17	=17	=17	=17
1D	0A	2d]	0d	1f#	1a
.	.	4c	.	.	.
.	.	4B	.	.	.
1D	.	2A	.	1f#	1a
.	.	2d	.	.	.
=18	=18	=18	=18	=18	=18
0GG	2G	0B	0d	0g	0b
.	1G	.	.	.	.
.	2G	.	.	.	.
=19	=19	=19	=19	=19	=19
0r	1C	1.c	1.e	0r	1.g
.	2r	.	.	.	.
.	[2c	2c	2e	.	2g
=20	=20	=20	=20	=20	=20
0r	2c]	1G	1d	0r	1g
.	2B	.	.	.	.
.	4.c	1c	1e	.	1g
.	8d	.	.	.	.
.	2e	.	.	.	.
=21	=21	=21	=21	=21	=21
0r	4d	2F	2f	0r	2a
.	4c	.	.	.	.
.	2.c	2A	2c	.	2e
.	.	1G	1d	.	1g
.	8B	.	.	.	.
.	8A	.	.	.	.
.	2B	.	.	.	.
=22	=22	=22	=22	=22	=22
2r	2c	1F	2A	1.f	0a
1F	1A	.	1c	.	.
.	.	1r	.	.	.
2F	2A	.	2c	2f	.
=23	=23	=23	=23	=23	=23
1F	1c	0r	1f	1a	0r
1D	1d	.	1f	1a	.
=24	=24	=24	=24	=24	=24
1G	1B	0r	2.d	1g	0r
.	.	.	4d	.	.
2C	2c	.	2e	2g	.
2E	2B	.	[2g	2g	.
=25	=25	=25	=25	=25	=25
0D	0d	0r	2g]	0a	0r
.	.	.	4f#	.	.
.	.	.	4e	.	.
.	.	.	1f#	.	.
=26	=26	=26	=26	=26	=26
0GG	1d	2r	2g	2b	2r
.	.	2G	2d	2.b	2g
.	1r	2G	2d	.	2g
.	.	.	.	4b	.
.	.	2G	2d	2b	2g
=27	=27	=27	=27	=27	=27
0r	0r	4F	2f	1cc	1a
.	.	4G	.	.	.
.	.	4A	4e	.	.
.	.	4B	4d	.	.
.	.	2c	2e	1cc	2g
.	.	2A	2c	.	2f
=28	=28	=28	=28	=28	=28
0r	0r	2G	2d	2b	1g
.	.	2E	2e	2b	.
.	.	1G	1d	1b	1g
=29	=29	=29	=29	=29	=29
2r	1.A	1D	2d	2a	1f#
1D	.	.	1d	1a	.
.	.	2F#	.	.	2r
2D	2A	2F#	2d	2a	[2dd
=30	=30	=30	=30	=30	=30
1GG	1B	1G	1d	1g	2dd]
.	.	.	.	.	2dd
1C	1c	1E	1e	1g	1cc
=31	=31	=31	=31	=31	=31
1AA	1c	1A	1e	1a	2cc
.	.	.	.	.	1ee
1D	[1A	2F	2.f	2a	.
.	.	2D	.	2a	[2dd
.	.	.	8e	.	.
.	.	.	8d	.	.
=32	=32	=32	=32	=32	=32
0AA	2A]	2.A	1.e	0a	2dd]
.	2A	.	.	.	4cc#
.	.	8G	.	.	4b
.	.	8F	.	.	.
.	1A	4E	.	.	2cc#
.	.	4D	.	.	.
.	.	2E	2e	.	2cc#
=33	=33	=33	=33	=33	=33
2.D	2r	2.F	2d	0r	2dd
.	1d	.	1f	.	1a
4E	.	4G	.	.	.
4F	.	1A	.	.	.
4G	.	.	.	.	.
2A	2c#	.	2e	.	2a
=34	=34	=34	=34	=34	=34
1D	1d	1r	1f	0r	1a
1r	1G	2r	1g	.	1b-
.	.	2d	.	.	.
=35	=35	=35	=35	=35	=35
0r	1A	2d	1e	0r	1a
.	.	2c#	.	.	.
.	2.D	1d	2r	.	2.f
.	.	.	[2d	.	.
.	4E	.	.	.	4g
=36	=36	=36	=36	=36	=36
0r	4F	1A	2d]	0r	4a
.	4G	.	.	.	4b
.	1A	.	2c	.	1cc
.	.	1r	1e	.	.
.	2E	.	.	.	2g
=37	=37	=37	=37	=37	=37
0r	2F	0r	1d	0r	2a
.	2G	.	.	.	2b
.	1A	.	1c	.	[1cc
=38	=38	=38	=38	=38	=38
0C	1G	2.c	2.e	0r	1cc]
.	.	4d	4f	.	.
.	1E	1e	[1g	.	[1cc
=39	=39	=39	=39	=39	=39
0GG	0G	0d	1g]	0r	2cc]
.	.	.	.	.	4b-
.	.	.	.	.	4a
.	.	.	1g	.	1b-
=40	=40	=40	=40	=40	=40
0D	1A	1d	0f	0r	1a
.	2.F	1A	.	.	1dd
.	4G	.	.	.	.
=41	=41	=41	=41	=41	=41
1AA	1A	2r	2e	1a	2cc#
.	.	2.A	2.e	.	2.cc#
1r	1r	.	.	2a	.
.	.	4A	4e	.	4cc#
.	.	2D	2f	2a	2dd
=42	=42	=42	=42	=42	=42
0r	0r	1G	1d	1g	1.b
.	.	1E	2e	1g	.
.	.	.	2e	.	2cc
=43	=43	=43	=43	=43	=43
0r	0r	2F	4d	2f	2a
.	.	.	4c	.	.
.	.	2F	1c	2f	2a
.	.	1D	.	1f	1dd
.	.	.	2B	.	.
=44	=44	=44	=44	=44	=44
2r	2r	1C	1c	0e	1g
1C	1c	.	.	.	.
.	.	1r	1G	.	1r
2C	2c	.	.	.	.
=45	=45	=45	=45	=45	=45
0D	0A	1r	1.d	1.f#	2r
.	.	.	.	.	1a
.	.	2r	.	.	.
.	.	[2D	2d	2f#	2a
=46	=46	=46	=46	=46	=46
0GG	1G	2D]	0d	0g	0b-
.	.	2D	.	.	.
.	1D	1G	.	.	.
=47	=47	=47	=47	=47	=47
0D	2r	0A	0d	0f#	1a
.	1D	.	.	.	.
.	.	.	.	.	2d
.	2D	.	.	.	[2dd
=48	=48	=48	=48	=48	=48
2r	0G	2B	2d	0g	2dd]
1GG	.	2d	1B	.	2dd
.	.	2d	.	.	1b
2GG	.	2d	2B	.	.
=49	=49	=49	=49	=49	=49
1C	1E	2.c	1e	[0g	0cc
.	.	4B	.	.	.
1C	2.E	2G	1e	.	.
.	.	2A	.	.	.
.	4F	.	.	.	.
=50	=50	=50	=50	=50	=50
0GG	0G	0B	0d	0g]	0b
=51	=51	=51	=51	=51	=51
1C	1G	1c	1e	0r	1g
1C	2.G	1e	1g	.	1cc
.	4A	.	.	.	.
=52	=52	=52	=52	=52	=52
1G	4B	1d	1g	0r	1b
.	4c	.	.	.	.
.	1d	.	.	.	.
1C	.	1e	1g	.	1cc
.	[2c	.	.	.	.
=53	=53	=53	=53	=53	=53
2G	2c]	2.d	1g	0r	1.dd
2G	2B	.	.	.	.
.	.	4e	.	.	.
4D	[1A	2f	1a	.	.
4E	.	.	.	.	.
4F	.	2f	.	.	2dd
4G	.	.	.	.	.
=54	=54	=54	=54	=54	=54
1A	2A]	1e	1a	0r	1cc#
.	2A	.	.	.	.
1D	2A	1d	1f#	.	1dd
.	2A	.	.	.	.
=55	=55	=55	=55	=55	=55
0C	0c	2r	0g	0r	0ee
.	.	1G	.	.	.
.	.	[2c	.	.	.
=56	=56	=56	=56	=56	=56
1G	1d	4c]	1g	0r	1dd
.	.	8B	.	.	.
.	.	8A	.	.	.
.	.	2B	.	.	.
2.C	[1e	1c	[1g	.	1cc
4D	.	.	.	.	.
=57	=57	=57	=57	=57	=57
2E	2e]	2G	2g]	0r	2b
2F	2A	2.d	4f	.	1a
.	.	.	4e	.	.
2.G	2.B	.	[1d	.	.
.	.	4c	.	.	.
.	.	4B	.	.	[2g
8F	4c	8A	.	.	.
8E	.	8G	.	.	.
=58	=58	=58	=58	=58	=58
0D	4d	0A	2d]	0r	1.g]
.	4e	.	.	.	.
.	2.d	.	2A	.	.
.	.	.	1d	.	.
.	4c	.	.	.	.
.	2A	.	.	.	2f#
=59	=59	=59	=59	=59	=59
0GG	0B	1G	1d	0g	4g
.	.	.	.	.	4a
.	.	.	.	.	4b
.	.	.	.	.	4cc
.	.	1G	2r	.	2dd
.	.	.	2d	.	2g
=60	=60	=60	=60	=60	=60
0r	0r	1F	1f	1cc	1a
.	.	4C	1e	1cc	[1g
.	.	4D	.	.	.
.	.	4E	.	.	.
.	.	4F	.	.	.
=61	=61	=61	=61	=61	=61
0r	0r	2G	1d	1b	2g]
.	.	2G	.	.	2g
.	.	2G	2d	2b	2g
.	.	2G	2d	2b	2g
=62	=62	=62	=62	=62	=62
0r	0r	1c	1e	1cc	1g
.	.	1F	1f	1cc	1a
=63	=63	=63	=63	=63	=63
1.BB-	1.d	1.B-	1.f	1.dd	1.b-
2BB-	2d	2B-	2f	2dd	2b-
=64	=64	=64	=64	=64	=64
0BB-	2d	1B-	0f	0dd	0b-
.	2.D	.	.	.	.
.	.	[1F	.	.	.
.	4E	.	.	.	.
.	4F	.	.	.	.
.	4G	.	.	.	.
=65	=65	=65	=65	=65	=65
2.F	2A	2F]	2.f	2.cc	2.a
.	2F	2A	.	.	.
4F	.	.	4f	4cc	4a
2C	2G	2c	2e	2cc	2g
2C	2G	2c	2e	2cc	2g
=66	=66	=66	=66	=66	=66
2G	2G	2B-	2d	2dd	2g
2G	2d	2B-	2g	2dd	2g
1D	1d	1A	1f#	1dd	1a
=67	=67	=67	=67	=67	=67
0GG	4d	0G	0g	0dd	0b
.	4c	.	.	.	.
.	4B	.	.	.	.
.	4A	.	.	.	.
.	1B	.	.	.	.
=68	=68	=68	=68	=68	=68
0r	1G	2r	2r	0r	2r
.	.	2d	2g	.	2b
.	1c	1e	1g	.	1cc
=69	=69	=69	=69	=69	=69
0r	2G	2d	2g	0r	2b
.	2c	2e	2g	.	2cc
.	2.F	2.c	2.f	.	2.a
.	4F	4c	4f	.	4a
=70	=70	=70	=70	=70	=70
0r	2F	2c	2f	0r	2a
.	4D	1d	1f	.	4f
.	4E	.	.	.	4g
.	4F	.	.	.	4a
.	4G	.	.	.	4b
.	4A	4c	4e	.	[2cc
.	4B	4B	4d	.	.
=71	=71	=71	=71	=71	=71
0r	2c	2A	4e	0r	4cc]
.	.	.	4f	.	4a
.	2G	1d	2g	.	2b-
.	1A	.	1e	.	1a
.	.	2c#	.	.	.
=72	=72	=72	=72	=72	=72
1.AA	2r	2r	1.e	0r	2r
.	1A	1c#	.	.	1a
2AA	2A	2c#	2e	.	2a
=73	=73	=73	=73	=73	=73
1D	1A	1.d	1.f	0r	2a
.	.	.	.	.	2d
1BB-	2D	.	.	.	2.f
.	[2d	2D	2d	.	.
.	.	.	.	.	4g
=74	=74	=74	=74	=74	=74
0AA	2d]	0A	0e	0r	1a
.	4c#	.	.	.	.
.	4B	.	.	.	.
.	1c#	.	.	.	1a
=75	=75	=75	=75	=75	=75
2GG	1d	2B	2g	1.dd	2r
1G	.	1d	1g	.	1b
.	2r	.	.	.	.
2G	[2G	2d	2g	2dd	2b
=76	=76	=76	=76	=76	=76
0C	2G]	2.c	1g	1ee	1cc
.	2G	.	.	.	.
.	.	4d	.	.	.
.	2C	1e	1g	1ee	1cc
.	2c	.	.	.	.
=77	=77	=77	=77	=77	=77
0r	2d	0r	2f	2dd	2a
.	2d	.	2f	2dd	2a
.	1B-	.	1f	1dd	1b-
=78	=78	=78	=78	=78	=78
2r	1F	2r	2f	2cc	2a
2F	.	2c	2f	2cc	2a
1A	1r	2c	1e	1cc	1a
.	.	2A	.	.	.
=79	=79	=79	=79	=79	=79
2E	0r	1.B	2e	2b	2g
1G	.	.	1d	1b	1g
2G	.	2G	2d	2b	2g
=80	=80	=80	=80	=80	=80
2D	2r	1A	2d	2a	2f
2D	2A	.	2d	2a	2f
1F	4.A	1r	1c	1a	1f
.	8G	.	.	.	.
.	2F	.	.	.	.
=81	=81	=81	=81	=81	=81
2C	2G	2r	1c	2g	2e
2C	2c	2G	.	2g	2ee
2G	2d	2B	1r	2g	2dd
2C	2e	2c	.	2g	2cc
=82	=82	=82	=82	=82	=82
0G	4d	0d	2r	1g	2.b
.	4c	.	.	.	.
.	4B	.	4G	.	.
.	4A	.	4A	.	4cc
.	2G	.	4B	1g	2dd
.	.	.	4c	.	.
.	2B	.	[2d	.	2g
=83	=83	=83	=83	=83	=83
1D	0A	1d	2d]	0f#	0a
.	.	.	4c	.	.
.	.	.	4B	.	.
1D	.	1d	2A	.	.
.	.	.	2d	.	.
=84	=84	=84	=84	=84	=84
0GG	0G	1.d	2.B	0g	1.b
.	.	.	4c	.	.
.	.	.	2d	.	.
.	.	2c	2e	.	2cc
=85	=85	=85	=85	=85	=85
0GG	1G	2.B	1d	0g	1dd
.	.	4c	.	.	.
.	2r	1d	2r	.	2b
.	2G	.	2g	.	2b
=86	=86	=86	=86	=86	=86
0r	2A	2r	2f	0r	2cc
.	2B	2G	2g	.	2b
.	4c	2A	2e	.	2a
.	4A	.	.	.	.
.	[2d	2B	2d	.	[2g
=87	=87	=87	=87	=87	=87
0r	4d]	2c	2e	0r	4g]
.	4c	.	.	.	8f#
.	.	.	.	.	8e
.	1c	2A	4d	.	2f#
.	.	.	4c	.	.
.	.	1G	1d	.	1g
.	2B	.	.	.	.
!! coda
*Ibass	*Itenor	*Itenor	*Icalto	*Icant	*Icant
!Bassus	!Tenor 2	!Tenor 1	!Altus	!Cantus 2	!Cantus 1
*clefF4	*clefGv2	*clefGv2	*clefG2	*clefG2	*clefG2
*k[]	*k[]	*k[]	*k[]	*k[]	*k[]
*G:mix	*G:mix	*G:mix	*G:mix	*G:mix	*G:mix
*M3/2	*M3/2	*M3/2	*M3/2	*M3/2	*M3/2
=88	=88	=88	=88	=88	=88
2C	1c	2E	2e	2g	1r
2E	.	2G	2e	2g	.
2F	2r	2A	2c	2f	2r
=89	=89	=89	=89	=89	=89
2C	1r	2G	2c	2e	1r
2C	.	2G	2c	2e	.
2G	2r	2G	2B	2d	2r
=90	=90	=90	=90	=90	=90
2E	1r	2B	2e	2g	1r
2C	.	2c	2e	2g	.
2D	2r	2A	2d	2f#	2r
=91	=91	=91	=91	=91	=91
1GG	2G	4B	1d	1g	2dd
.	.	4B	.	.	.
.	2B	2d	.	.	2dd
2r	2c	2e	2g	2r	2cc
=92	=92	=92	=92	=92	=92
1r	2G	2d	2.g	1r	2b
.	2G	2d	.	.	2b
.	.	.	8f	.	.
.	.	.	8e	.	.
2r	2d	2d	2f	2r	2a
=93	=93	=93	=93	=93	=93
1r	2c	2e	2g	1r	2cc
.	2F	2f	2a	.	2cc
2r	2G	2d	2g	2r	2b
=94	=94	=94	=94	=94	=94
2C	1G	1c	1e	2g	1cc
2E	.	.	.	2g	.
2F	2A	2r	2c	2f	2r
=95	=95	=95	=95	=95	=95
1C	1G	2C	1e	1e	2g
.	.	2E	.	.	2g
2r	2A	2F	2c	2r	2f
=96	=96	=96	=96	=96	=96
2C	1G	1C	1c	2g	1e
2E	.	.	.	2g	.
2F	2r	2c	2A	2f	2a
=97	=97	=97	=97	=97	=97
2C	1G	1c	4c	2e	2g
.	.	.	4d	.	.
2C	.	.	4e	2e	2.g
.	.	.	4f	.	.
2GG	2G	[2B	2g	2d	.
.	.	.	.	.	4a
=98	=98	=98	=98	=98	=98
2GG	2G	2B]	2d	2g	2b
2C	2E	2c	2e	2g	2g
2D	2A	2A	2d	2f#	2dd
=99	=99	=99	=99	=99	=99
1GG	1G	2B	2d	[1.g	4b
.	.	.	.	.	4a
.	.	4d	2.B	.	4b
.	.	4c	.	.	4cc
2GG	2G	4B	.	.	2dd
.	.	4A	8c	.	.
.	.	.	8d	.	.
=100	=100	=100	=100	=100	=100
4C	2E	4G	1.e	1.g]	1.cc
4D	.	4F	.	.	.
4E	4C	4E	.	.	.
4F	4D	4D	.	.	.
2G	4E	2C	.	.	.
.	4F	.	.	.	.
=101	=101	=101	=101	=101	=101
2GG	1.G	2D	2d	[1.g	2b
1C	.	1E	1c	.	1cc
=102	=102	=102	=102	=102	=102
1.GG	1.G	1.D	1.d	1.g]	1.b
==	==	==	==	==	==
*-	*-	*-	*-	*-	*-
!!!CDT: 1525/^1526/-1594/2/2
!!!OCY: Italia
!!!AGN: Mass (Tenor)
!!!AST: renaissance, vocal
!!!ASW: Hymn
!!!PWK: Masses, Book 11
!!!RNB: Cadence finals: A,C
!!!YOR: Le Opere Complete, v. 28, p. 114
!!!YOO: Rome, Italy: Fratelli Scalera
!!!END: 1992//
!!!EED: John Miller
!!!YEC: Copyright 2000, John Miller
!!!YEN: United States of America
!!!YEM: Rights to all derivative electronic formats reserved.
!!!YEM: Refer to licensing agreement for further details.
!!!YEM: This file must be accompanied by the licensing agreement.
!!!YEM: A copy of the licensing agreement may be found at http://www.music-cog.ohio-state.edu/HumdrumDatabases/Palestrina/license.txt
!!!EMD: converted to Humdrum by Bret Aarden
